assets/Billed cap/Flat/billed_cap_flat.svg

<svg width="32" height="32" viewBox="0 0 32 32" fill="none" xmlns="http://www.w3.org/2000/svg">
<path d="M28.6599 17.22L29.9099 24.89C30.3799 27.55 28.3299 29.99 25.6299 29.99H6.34989C3.65989 29.99 1.61989 27.57 2.05989 24.92L3.32989 17.24L28.6599 17.22Z" fill="#0074BA"/>
<path d="M17.97 4.57H14V3.39C14 2.62 14.62 2 15.39 2H16.57C17.34 2 17.96 2.62 17.96 3.39V4.57H17.97Z" fill="#00A6ED"/>
<path d="M7.26982 21.65H24.7098C26.8898 21.65 28.6598 19.88 28.6598 17.7V11.77C28.6598 7.49002 25.1898 4.02002 20.9098 4.02002H18.9188L15.9898 4.65773L12.799 4.02002H11.0698C6.78982 4.02002 3.31982 7.49002 3.31982 11.77V17.7C3.31982 19.88 5.08982 21.65 7.26982 21.65Z" fill="#00A6ED"/>
<path d="M5.98999 21.4362C5.98999 21.4362 6.42208 21.6503 7.51757 21.6503C8.61307 21.6503 16.0108 21.6503 16.0108 21.6503C16.0108 21.6503 24.1892 21.6503 24.7622 21.6503C25.3351 21.6503 25.92 21.4614 25.92 21.4614V10.93C25.92 7.11002 22.83 4.02002 19.01 4.02002H12.9C9.07999 4.02002 5.98999 7.11002 5.98999 10.93V21.4362Z" fill="#26EAFC"/>
</svg>

<svg xmlns="http://www.w3.org/2000/svg" width="32" height="32" fill="none"><path fill="#0074BA" d="m28.66 17.22 1.25 7.67c.47 2.66-1.58 5.1-4.28 5.1H6.35c-2.69 0-4.73-2.42-4.29-5.07l1.27-7.68 25.33-.02Z"/><path fill="#00A6ED" d="M17.97 4.57H14V3.39c0-.77.62-1.39 1.39-1.39h1.18c.77 0 1.39.62 1.39 1.39v1.18h.01Z"/><path fill="#00A6ED" d="M7.27 21.65h17.44c2.18 0 3.95-1.77 3.95-3.95v-5.93a7.75 7.75 0 0 0-7.75-7.75h-1.991l-2.93.638-3.19-.638h-1.73a7.75 7.75 0 0 0-7.75 7.75v5.93c0 2.18 1.77 3.95 3.95 3.95Z"/><path fill="#26EAFC" d="M5.99 21.436s.432.214 1.528.214h17.244c.573 0 1.158-.189 1.158-.189V10.93c0-3.82-3.09-6.91-6.91-6.91H12.9c-3.82 0-6.91 3.09-6.91 6.91v10.506Z"/></svg>
